public/assets/img/icons/url.svg

<svg width="20" height="18" viewBox="0 0 20 18" fill="none" xmlns="http://www.w3.org/2000/svg">
<path d="M15.3572 10.4999H14.6428C14.5385 10.4999 14.4529 10.535 14.3863 10.6055C14.3191 10.6756 14.2857 10.7655 14.2857 10.8749V14.625C14.2857 15.1407 14.1109 15.582 13.7613 15.9492C13.4116 16.3164 12.9911 16.4998 12.5 16.4998H3.21422C2.72316 16.4998 2.30273 16.3164 1.95298 15.9492C1.60332 15.582 1.4285 15.1407 1.4285 14.625V4.87473C1.4285 4.3591 1.60328 3.91781 1.95298 3.55061C2.30273 3.18336 2.72316 2.99984 3.21422 2.99984H11.0713C11.1756 2.99984 11.2612 2.96459 11.3281 2.89435C11.395 2.82404 11.4284 2.73427 11.4284 2.6248V1.87467C11.4284 1.76541 11.395 1.67548 11.3281 1.60529C11.2612 1.53497 11.1756 1.49988 11.0713 1.49988H3.21422C2.32888 1.49988 1.57177 1.82997 0.942952 2.49013C0.31437 3.15024 0 3.94523 0 4.87485V14.6251C0 15.5547 0.31437 16.3498 0.942991 17.0098C1.57181 17.6699 2.32892 18.0002 3.21426 18.0002H12.5C13.3853 18.0002 14.1425 17.6699 14.7713 17.0098C15.4 16.3498 15.7144 15.5548 15.7144 14.6251V10.8752C15.7144 10.7657 15.681 10.6758 15.6138 10.6055C15.5468 10.535 15.4612 10.4999 15.3572 10.4999Z" fill="#333333"/>
<path d="M19.7874 0.222637C19.646 0.0741712 19.4784 0 19.2851 0H13.5708C13.3774 0 13.2099 0.0741712 13.0686 0.222637C12.9272 0.37102 12.8565 0.546823 12.8565 0.749963C12.8565 0.953102 12.9272 1.12895 13.0686 1.27741L15.0328 3.33992L7.75618 10.9808C7.68167 11.0589 7.64453 11.1488 7.64453 11.2502C7.64453 11.3519 7.68179 11.4418 7.75618 11.5199L9.02851 12.8557C9.1029 12.9338 9.18851 12.9728 9.28522 12.9728C9.38193 12.9728 9.46758 12.9339 9.54193 12.8557L16.8186 5.21497L18.783 7.27748C18.9243 7.42595 19.0917 7.5002 19.2852 7.5002C19.4787 7.5002 19.6461 7.42595 19.7876 7.27748C19.9289 7.12906 19.9996 6.9533 19.9996 6.75016V0.749963C19.9995 0.5467 19.9287 0.37102 19.7874 0.222637Z" fill="#333333"/>
</svg>

<svg width="20" height="18" fill="none" xmlns="http://www.w3.org/2000/svg"><path d="M15.357 10.5h-.714a.337.337 0 0 0-.257.105c-.067.07-.1.16-.1.27v3.75c0 .516-.175.957-.525 1.324-.35.367-.77.55-1.261.55H3.214a1.68 1.68 0 0 1-1.261-.55 1.852 1.852 0 0 1-.524-1.324v-9.75c0-.516.174-.957.524-1.324.35-.368.77-.551 1.261-.551h7.857a.34.34 0 0 0 .257-.106c.067-.07.1-.16.1-.27v-.75c0-.109-.033-.199-.1-.269a.339.339 0 0 0-.257-.105H3.214c-.885 0-1.642.33-2.271.99C.314 3.15 0 3.945 0 4.875v9.75c0 .93.314 1.725.943 2.385.629.66 1.386.99 2.271.99H12.5c.885 0 1.643-.33 2.271-.99.629-.66.943-1.455.943-2.385v-3.75c0-.11-.033-.2-.1-.27a.338.338 0 0 0-.257-.105z" fill="#333"/><path d="M19.787.223A.671.671 0 0 0 19.285 0h-5.714a.67.67 0 0 0-.502.223.739.739 0 0 0-.213.527c0 .203.071.379.213.527l1.964 2.063-7.277 7.64a.379.379 0 0 0 0 .54l1.273 1.336c.074.078.16.117.256.117a.345.345 0 0 0 .257-.117l7.277-7.641 1.964 2.062a.67.67 0 0 0 .502.223c.194 0 .361-.074.503-.223A.739.739 0 0 0 20 6.75v-6a.74.74 0 0 0-.213-.527z" fill="#333"/></svg>
